OpenNeighborhood/assets/icons/svg/drive.svg

<svg enable-background="new 0 0 286 286" version="1.1" viewBox="0 0 286 286" xml:space="preserve" xmlns="http://www.w3.org/2000/svg"><path d="m172.56 112.93c0 16.114-13.11 29.225-29.226 29.225-16.114 0-29.225-13.11-29.225-29.225s13.11-29.225 29.225-29.225 29.226 13.11 29.226 29.225zm84.441 158.07c0 8.284-6.716 15-15 15h-198c-8.284 0-15-6.716-15-15v-256c0-8.284 6.716-15 15-15h198c8.284 0 15 6.716 15 15v256zm-198.51-227.9c0 7.856 6.369 14.225 14.225 14.225s14.225-6.369 14.225-14.225-6.369-14.225-14.225-14.225-14.225 6.369-14.225 14.225zm28.45 200.01c0-7.856-6.369-14.225-14.225-14.225s-14.225 6.369-14.225 14.225 6.369 14.225 14.225 14.225c7.857 0 14.225-6.369 14.225-14.225zm127.25-128.02c0-38.791-31.56-70.35-70.351-70.35s-70.35 31.559-70.35 70.35c0 17.174 6.194 32.923 16.455 45.151l11.858-11.897c4.913-4.929 12.566-5.832 18.489-2.184 5.924 3.647 8.562 10.89 6.373 17.493l-5.925 17.871c7.24 2.525 15.008 3.915 23.099 3.915 38.792 0 70.352-31.558 70.352-70.349zm14.999 128.02c0-7.856-6.369-14.225-14.225-14.225s-14.225 6.369-14.225 14.225 6.369 14.225 14.225 14.225 14.225-6.369 14.225-14.225zm0-200.01c0-7.856-6.369-14.225-14.225-14.225s-14.225 6.369-14.225 14.225 6.369 14.225 14.225 14.225 14.225-6.369 14.225-14.225z" fill="#d6d6d6"/></svg>

<?xml version="1.0"?>
<svg version="1.1" xmlns="http://www.w3.org/2000/svg" xmlns:xlink="http://www.w3.org/1999/xlink" x="0" y="0" viewBox="0 0 286 286" style="enable-background:new 0 0 286 286;" xml:space="preserve">
    <path d="M172.559,112.934c0,16.114-13.11,29.225-29.226,29.225c-16.114,0-29.225-13.11-29.225-29.225s13.11-29.225,29.225-29.225 C159.448,83.709,172.559,96.819,172.559,112.934z M257,271c0,8.284-6.716,15-15,15H44c-8.284,0-15-6.716-15-15V15 c0-8.284,6.716-15,15-15h198c8.284,0,15,6.716,15,15V271z M58.486,43.102c0,7.856,6.369,14.225,14.225,14.225 c7.856,0,14.225-6.369,14.225-14.225s-6.369-14.225-14.225-14.225C64.855,28.877,58.486,35.246,58.486,43.102z M86.936,243.114 c0-7.856-6.369-14.225-14.225-14.225c-7.856,0-14.225,6.369-14.225,14.225c0,7.856,6.369,14.225,14.225,14.225 C80.568,257.339,86.936,250.97,86.936,243.114z M214.187,115.089c0-38.791-31.56-70.35-70.351-70.35s-70.35,31.559-70.35,70.35 c0,17.174,6.194,32.923,16.455,45.151l11.858-11.897c4.913-4.929,12.566-5.832,18.489-2.184c5.924,3.647,8.562,10.89,6.373,17.493 l-5.925,17.871c7.24,2.525,15.008,3.915,23.099,3.915C182.627,185.438,214.187,153.88,214.187,115.089z M229.186,243.114 c0-7.856-6.369-14.225-14.225-14.225c-7.856,0-14.225,6.369-14.225,14.225c0,7.856,6.369,14.225,14.225,14.225 C222.817,257.339,229.186,250.97,229.186,243.114z M229.186,43.102c0-7.856-6.369-14.225-14.225-14.225 c-7.856,0-14.225,6.369-14.225,14.225s6.369,14.225,14.225,14.225C222.817,57.327,229.186,50.958,229.186,43.102z"/>
</svg>
